X: 1
T: Fairy Toddler Jig
C: Graham Townsend
R: jig
Z: 2006 John Chambers <jc:trillian.mit.edu>
M: 6/8
L: 1/8
K: D
D/E/ \
| "D"F2F FEF | DFA dcd | "G"Bcd "D"AFD | "Em"EFD "A7"CB,A, \
| "D"F2F FEF | DFA dcd | "G"Bcd "D"AFD | "A7"EDC  "D"D2 :|
|: f/g/ \
| "D"afd A2f | "A7"gec A2g | "D"fed "Bm"Bcd | "Em"efd "A7"cBA \
| "D"afd A2f | "A7"gec A2f | "G"gbg  "D"faf | "A7"gec  "D"d2 :|
